outputs/icons/people/person_info_round.svg

<svg xmlns="http://www.w3.org/2000/svg" width="1200" height="1200" fill="none"><path fill="#000" d="M600 600c110.455 0 200-89.545 200-200 0-110.457-89.545-200-200-200-110.457 0-200 89.543-200 200 0 110.455 89.543 200 200 200M633.5 651c-11-.5-22-1-33.5-1-121 0-234 33.5-330.5 91-44 26-69.5 75-69.5 126.5V950c0 27.615 22.386 50 50 50h413c-39.5-56.5-63-125.5-63-200 0-53.5 12.5-103.5 33.5-149"/><path fill="#000" d="M825 1000c96.6 0 175-78.4 175-175s-78.4-175-175-175-175 78.4-175 175 78.4 175 175 175m-17.5-262.5h35v105h-35zm0 140h35v35h-35z"/></svg>

<svg width="1200" height="1200" viewBox="0 0 1200 1200" fill="none" xmlns="http://www.w3.org/2000/svg"><path d="M600 600C710.455 600 800 510.455 800 400C800 289.543 710.455 200 600 200C489.543 200 400 289.543 400 400C400 510.455 489.543 600 600 600Z" fill="black"/><path d="M633.5 651C622.5 650.5 611.5 650 600 650C479 650 366 683.5 269.5 741C225.5 767 200 816 200 867.5V950C200 977.615 222.386 1000 250 1000H663C623.5 943.5 600 874.5 600 800C600 746.5 612.5 696.5 633.5 651Z" fill="black"/><path d="M825 1000C921.6 1000 1000 921.6 1000 825C1000 728.4 921.6 650 825 650C728.4 650 650 728.4 650 825C650 921.6 728.4 1000 825 1000ZM807.5 737.5H842.5V842.5H807.5V737.5ZM807.5 877.5H842.5V912.5H807.5V877.5Z" fill="black"/></svg>
